svgs/sharp-light/sliders-up.svg

<svg xmlns="http://www.w3.org/2000/svg" viewBox="0 0 512 512"><!--! Font Awesome Pro 6.6.0 by @fontawesome - https://fontawesome.com License - https://fontawesome.com/license (Commercial License) Copyright 2024 Fonticons, Inc. --><path d="M112 0l0 16 0 64 32 0 32 0 0 32 0 96 0 32-32 0-32 0 0 256 0 16-32 0 0-16 0-256-32 0-32 0 0-32 0-96 0-32 32 0 32 0 0-64L80 0l32 0zM80 208l32 0 32 0 0-96-32 0-32 0-32 0 0 96 32 0zM272 0l0 16 0 256 32 0 32 0 0 32 0 96 0 32-32 0-32 0 0 64 0 16-32 0 0-16 0-64-32 0-32 0 0-32 0-96 0-32 32 0 32 0 0-256 0-16 32 0zM400 112l0-96 0-16 32 0 0 16 0 96 32 0 32 0 0 32 0 96 0 32-32 0-32 0 0 224 0 16-32 0 0-16 0-224-32 0-32 0 0-32 0-96 0-32 32 0 32 0zm0 32l-32 0 0 96 32 0 32 0 32 0 0-96-32 0-32 0zM272 400l32 0 0-96-32 0-32 0-32 0 0 96 32 0 32 0z"/></svg>

<svg xmlns="http://www.w3.org/2000/svg" viewBox="0 0 512 512"><!--! Font Awesome Pro 6.4.2 by @fontawesome - https://fontawesome.com License - https://fontawesome.com/license (Commercial License) Copyright 2023 Fonticons, Inc. --><path d="M112 0V16 80h32 32v32 96 32H144 112V496v16H80V496 240H48 16V208 112 80H48 80V16 0h32zM80 208h32 32V112H112 80 48v96H80zM272 0V16 272h32 32v32 96 32H304 272v64 16H240V496 432H208 176V400 304 272h32 32V16 0h32zM400 112V16 0h32V16v96h32 32v32 96 32H464 432V496v16H400V496 272H368 336V240 144 112h32 32zm0 32H368v96h32 32 32V144H432 400zM272 400h32V304H272 240 208v96h32 32z"/></svg>
